X:292
T:Jack's Fiddle 
C:Joe Buchanan's Scottish Tome - Page 437.1
I:437 1
C:D. MacLeod
Z:Carl Allison
R:Jig
L:1/8
M:6/8
K:D
B,C | DED B,2 D | B2 A G2 F | ECE G2 E | D3 3 G2 A |
B^AB d2 e | d2 B G2 B | ABA GFE |1 D3 :|2 G3 |]
GF=F | E3 G2 c | e3 e3 | ded B2 G | D3 G2 A |
B^AB d2 e | d2 B G2 B | ABA GFE | D3 B,2 C |
DED B,2 D | B2 A G2 F | ECE G2 E | D3 G2 A |
B^AB d2 e | d2 B G2 B | ABA G2 F | G3 |]

